X: 1079
T: What Ails You?
R:double jig
N:"collected by J.O'Neill"
B:O'Neill's 1079
Z:Transcribed by henrik.norbeck@mailbox.swipnet.se
M:6/8
L:1/8
K:D
A|d2d def|e2d c2A|B2B BAF|A2A ABc|
d2d def|e2d c2A|B2A GEF|D2D D2:|
B|A2G FEF|A2A A2g|f2d edB|d2d d2B|
A2G FEF|A2A A2A|Bcd edc|d2D D2:|


